U-commodities/img/partners/green-biopharma-plasma.svg

<svg width="160" height="42" viewBox="0 0 160 42" fill="none" xmlns="http://www.w3.org/2000/svg">
<path fill-rule="evenodd" clip-rule="evenodd" d="M23.6786 4.34326C26.0668 6.93099 27.4105 10.4393 27.4149 14.0989C30.7936 14.0989 34.034 15.5532 36.4231 18.142C38.8123 20.7307 40.1544 24.2418 40.1544 27.9028C40.1544 31.5638 38.8123 35.075 36.4231 37.6637C34.034 40.2524 30.7936 41.7068 27.4149 41.7068H1.93555V0.294922H14.6752C18.0526 0.299686 21.2904 1.75555 23.6786 4.34326ZM5.11676 38.2598H27.4149C29.901 38.2063 32.2701 37.1052 34.0194 35.1902C35.7687 33.2753 36.7606 30.6973 36.7846 28.0029C36.8087 25.3086 35.8629 22.7103 34.148 20.7591C32.4331 18.8079 30.0842 17.6575 27.5995 17.5518H27.005C26.7369 18.6782 26.338 19.7632 25.8177 20.7808C24.7165 22.9377 23.1023 24.736 21.1428 25.9884C19.1834 27.2408 16.9502 27.9019 14.6752 27.9028H5.11676V38.2598ZM20.1925 22.5571C21.8062 21.3202 23.0268 19.5725 23.687 17.5539H14.6752C12.6987 17.5565 10.7713 18.2218 9.15776 19.4587C7.5442 20.6955 6.3235 22.4432 5.66327 24.4618H14.6752C16.6516 24.4593 18.579 23.7939 20.1925 22.5571ZM14.6752 3.74991H5.12415V18.7883C5.3254 18.5402 5.54142 18.292 5.76482 18.058C6.13968 17.6511 6.54006 17.2727 6.96309 16.9257C9.17617 15.0885 11.8873 14.0948 14.6752 14.0989H24.2262L24.2059 13.4787C24.057 10.8479 22.9885 8.37734 21.218 6.56994C19.4474 4.76255 17.1077 3.75413 14.6752 3.74991Z" fill="#8BB539"/>
<path fill-rule="evenodd" clip-rule="evenodd" d="M56.7049 7.58907C54.9232 7.58907 53.2966 8.61337 52.0522 9.78971V3.69597H50.8631V18.9804H51.7457L51.9802 16.9558C53.2376 18.1562 54.8881 19.1564 56.7086 19.1564C59.0239 19.1564 61.0069 17.2339 61.0069 13.3548C61.0069 9.47562 59.0147 7.58907 56.7049 7.58907ZM56.7049 17.962C54.9601 17.962 53.4148 16.8238 52.0522 15.4534V11.1961C53.4148 9.88774 54.9601 8.79543 56.7049 8.79543C58.3556 8.79543 59.7919 10.3019 59.7919 13.3808C59.7919 16.4596 58.3556 17.962 56.7049 17.962Z" fill="#8BB539"/>
<path d="M64.0127 3.69597H65.2017V5.87259H64.0127V3.69597Z" fill="#8BB539"/>
<path d="M64.0127 7.77076H65.2017V18.98H64.0127V7.77076Z" fill="#8BB539"/>
<path fill-rule="evenodd" clip-rule="evenodd" d="M68.2151 13.3805C68.2151 9.50933 70.9034 7.58877 73.5251 7.58877C76.1579 7.58877 78.8369 9.51932 78.8369 13.3904C78.8369 17.2616 76.1469 19.182 73.5251 19.182C70.9034 19.182 68.2151 17.2515 68.2151 13.3805ZM69.4448 13.3764C69.4448 16.4313 71.5218 17.9617 73.5251 17.9617C75.5302 17.9617 77.6055 16.4313 77.6055 13.3764C77.6055 10.3216 75.534 8.79111 73.5251 8.79111C71.5163 8.79111 69.4448 10.3216 69.4448 13.3764Z" fill="#8BB539"/>
<path fill-rule="evenodd" clip-rule="evenodd" d="M83.0057 9.85542C84.2576 8.64907 85.91 7.58877 87.7249 7.58877C90.0402 7.58877 92.0214 9.50733 92.0214 13.3764C92.0214 17.2455 90.0384 19.1681 87.7231 19.1681C85.9415 19.1681 84.3148 18.1878 83.0704 17.0274V23.0613H81.8814V7.77482H82.7657L83.0057 9.85542ZM83.0722 15.4531C84.4348 16.8235 85.9802 17.9617 87.7249 17.9617C89.3756 17.9617 90.8138 16.4593 90.8138 13.3805C90.8138 10.3015 89.3756 8.79511 87.7249 8.79511C85.9802 8.79511 84.4348 9.88743 83.0722 11.1958V15.4531Z" fill="#8BB539"/>
<path d="M96.4195 9.7737C97.7267 8.57336 99.261 7.58907 101.07 7.58907C103.345 7.58907 104.887 8.97747 104.883 11.7763V18.9784H103.694V11.7763C103.694 9.78971 102.634 8.78943 101.07 8.78943C99.344 8.78943 97.8559 9.78971 96.4195 11.1901V18.9804H95.2304V3.69597H96.4195V9.7737Z" fill="#8BB539"/>
<path d="M121.729 7.77119L121.972 9.8618C123.091 8.58542 124.347 7.61114 125.975 7.61714C126.492 7.62208 127.004 7.71524 127.495 7.89323L127.033 9.07356C126.631 8.883 126.195 8.78818 125.755 8.79549C124.277 8.79549 123.108 9.91581 122.028 11.2082V18.9744H120.839V7.77119H121.729Z" fill="#8BB539"/>
<path d="M137.958 9.91143C139.071 8.64907 140.547 7.58877 142.17 7.58877C144.287 7.58877 145.829 8.97717 145.829 11.806V19.008H144.64V12.006C144.64 9.68337 143.602 8.80512 142.17 8.80512C140.702 8.80512 139.235 9.97146 138.221 11.2598C138.245 11.4319 138.245 11.6099 138.245 11.792V18.994H137.055V11.992C137.055 9.66936 136.04 8.79111 134.583 8.79111C133.126 8.79111 131.671 9.94344 130.659 11.2218V18.992H129.471V7.78883H130.352L130.583 9.7894C131.667 8.58906 133.064 7.58877 134.583 7.58877C136.16 7.58877 137.421 8.35899 137.958 9.91143Z" fill="#8BB539"/>
<path fill-rule="evenodd" clip-rule="evenodd" d="M108.348 9.27725C109.761 8.33098 111.107 7.58877 113.178 7.58877C115.448 7.58877 117.124 8.97717 117.124 11.784V18.986H116.241L115.994 16.8554C114.782 18.1218 113.271 19.1741 111.413 19.1741C109.362 19.1741 107.752 17.9217 107.752 15.6991C107.752 13.4084 109.705 12.1101 111.921 12.1101C113.417 12.1101 114.816 12.7223 115.935 13.5105V12.0801C115.935 9.62535 114.7 8.7471 113.136 8.7471C111.437 8.7471 110.534 9.21123 108.947 10.2775L108.348 9.27725ZM108.967 15.6931C108.967 17.2455 110.18 18.0117 111.657 18.0117C113.235 18.0117 114.641 16.9275 115.935 15.6031V14.7608C114.774 13.9186 113.505 13.2624 111.921 13.2624C110.113 13.2624 108.967 14.1867 108.967 15.6931Z" fill="#8BB539"/>
<path fill-rule="evenodd" clip-rule="evenodd" d="M149.287 9.27725C150.7 8.33098 152.044 7.58877 154.117 7.58877H154.121C156.391 7.58877 158.066 8.97717 158.063 11.784V18.986H157.18L156.932 16.8554C155.722 18.1218 154.209 19.1741 152.352 19.1741C150.301 19.1741 148.691 17.9217 148.691 15.6991C148.691 13.4084 150.645 12.1101 152.86 12.1101C154.356 12.1101 155.755 12.7223 156.875 13.5105V12.0801C156.875 9.62535 155.642 8.7471 154.075 8.7471C152.377 8.7471 151.474 9.21123 149.886 10.2775L149.287 9.27725ZM149.906 15.6931C149.906 17.2455 151.119 18.0117 152.596 18.0117C154.179 18.0117 155.587 16.9275 156.875 15.6031V14.7608C155.712 13.9186 154.445 13.2624 152.86 13.2624C151.053 13.2624 149.906 14.1867 149.906 15.6931Z" fill="#8BB539"/>
<path fill-rule="evenodd" clip-rule="evenodd" d="M51.8712 41.5766V36.2371C52.5081 37.0253 53.5329 37.7555 54.7773 37.7555C57.0816 37.7555 59.0128 35.911 59.0128 33.1081C59.0128 30.3054 57.1517 28.4409 54.925 28.4409C53.5956 28.4409 52.4436 29.2411 51.7862 30.0534C51.7727 29.5923 51.707 29.1347 51.5905 28.6909H50.5622C50.7175 29.4011 50.7889 30.1298 50.7745 30.8596V41.5766H51.8712ZM51.8712 30.9555C52.4915 30.2834 53.5551 29.4771 54.8253 29.4771C56.4556 29.4771 57.8034 30.9176 57.8034 33.1081C57.8034 35.2988 56.3855 36.7092 54.6647 36.7092C53.4239 36.7092 52.414 35.865 51.8657 35.2308L51.8712 30.9555Z" fill="#8BB539"/>
<path d="M63.0895 24.0616H61.9909V37.5055H63.0895V24.0616Z" fill="#8BB539"/>
<path fill-rule="evenodd" clip-rule="evenodd" d="M67.0314 30.5394C67.9849 29.8468 69.1018 29.465 70.2496 29.4392C71.5419 29.4392 72.8011 29.9773 72.8011 31.3597V32.8581C72.1107 32.0319 70.7702 31.7438 69.6624 31.7438C67.2621 31.7438 65.9402 33.0502 65.9402 34.6826C65.9402 36.4111 67.1458 37.6975 69.1842 37.6975C70.5272 37.6906 71.8182 37.1348 72.7993 36.141C72.8177 36.5832 72.8713 37.1594 73.0651 37.5055H74.1822C73.9786 37.0017 73.882 36.4547 73.8997 35.905V31.0516C73.8997 29.0931 72.0386 28.4409 70.2828 28.4409C68.9928 28.446 67.7295 28.8379 66.6326 29.5732L67.0314 30.5394ZM69.3891 36.7052C67.8659 36.7052 67.0314 35.803 67.0314 34.6886C67.0314 33.5743 67.8826 32.6881 69.8156 32.6881C71.0194 32.6881 72.2436 33.0722 72.7919 33.8604V35.1288C72.6497 35.3729 71.2336 36.7052 69.3891 36.7052Z" fill="#8BB539"/>
<path d="M83.6519 29.5351C82.5924 28.8034 81.3635 28.4108 80.107 28.4028C78.6189 28.4028 76.828 29.035 76.828 31.0516C76.828 33.1449 78.7604 33.2779 80.4338 33.393L80.434 33.393L80.4799 33.3962C81.5435 33.4523 83.1738 33.5683 83.1738 34.9507C83.1738 36.181 81.933 36.7952 80.4265 36.7952C78.8128 36.7952 77.7142 36.065 76.9517 35.4888L76.5086 36.3911C77.6453 37.3069 79.0284 37.7926 80.4448 37.7735C82.535 37.7735 84.2723 36.8533 84.2723 34.8546C84.2723 32.488 81.9004 32.3416 80.5048 32.2555L80.472 32.2535C79.3909 32.1955 77.9265 32.117 77.9265 30.9095C77.9265 29.8153 79.0971 29.3931 80.1254 29.3931C81.222 29.4225 82.2895 29.7812 83.2088 30.4294L83.6519 29.5351Z" fill="#8BB539"/>
<path d="M88.0818 37.5057V31.0518C88.667 30.3236 89.5588 29.4773 90.722 29.4773C91.839 29.4773 92.4944 30.2456 92.6551 31.0918V37.5057H93.7537V31.0518C94.3389 30.3236 95.2307 29.4773 96.3773 29.4773C96.6296 29.4659 96.8814 29.5103 97.1175 29.6078C97.3534 29.7053 97.5686 29.8538 97.7498 30.0444C97.931 30.2351 98.0746 30.4637 98.1715 30.7163C98.2685 30.9689 98.3171 31.2403 98.314 31.514V37.5057H99.4219V31.514C99.4219 29.7275 98.1996 28.4411 96.5509 28.4411C95.168 28.4411 94.1747 29.3053 93.5542 30.2276C93.3211 29.6767 92.9426 29.213 92.4664 28.8951C91.9903 28.577 91.4378 28.4191 90.879 28.4411C89.5145 28.4411 88.6098 29.2673 87.971 30.0736C87.9566 29.6031 87.8795 29.1375 87.742 28.6911H86.7303C86.897 29.3739 86.9807 30.0775 86.9795 30.7837V37.5057H88.0818Z" fill="#8BB539"/>
<path fill-rule="evenodd" clip-rule="evenodd" d="M103.07 30.5394C104.021 29.8507 105.135 29.471 106.279 29.4452C107.571 29.4452 108.83 29.9833 108.83 31.3656V32.8642C108.14 32.0379 106.8 31.7498 105.692 31.7498C103.28 31.7498 101.969 33.0562 101.969 34.6886C101.969 36.4172 103.175 37.7035 105.213 37.7035C106.56 37.6972 107.855 37.139 108.838 36.141C108.856 36.5832 108.908 37.1594 109.104 37.5055H110.221C110.017 37.0018 109.919 36.4548 109.936 35.905V31.0516C109.936 29.0931 108.075 28.4409 106.321 28.4409C105.031 28.4463 103.767 28.8382 102.669 29.5732L103.07 30.5394ZM105.428 36.7052C103.903 36.7052 103.07 35.803 103.07 34.6886C103.07 33.5743 103.921 32.6881 105.852 32.6881C107.058 32.6881 108.28 33.0722 108.83 33.8604V35.1288C108.688 35.3729 107.27 36.7052 105.428 36.7052Z" fill="#8BB539"/>
</svg>

<svg width="160" height="42" fill="none" xmlns="http://www.w3.org/2000/svg"><path fill-rule="evenodd" clip-rule="evenodd" d="M23.679 4.343c2.388 2.588 3.732 6.096 3.736 9.756 3.379 0 6.619 1.454 9.008 4.043 2.39 2.589 3.731 6.1 3.731 9.76 0 3.662-1.342 7.173-3.73 9.762-2.39 2.588-5.63 4.043-9.01 4.043H1.937V.295h12.74c3.377.005 6.614 1.46 9.003 4.048zM5.117 38.26h22.298c2.486-.054 4.855-1.155 6.604-3.07 1.75-1.915 2.742-4.493 2.766-7.187.024-2.694-.922-5.293-2.637-7.244-1.715-1.951-4.064-3.102-6.549-3.207h-.594a14.437 14.437 0 01-1.187 3.229c-1.102 2.157-2.716 3.955-4.675 5.207a12 12 0 01-6.468 1.915H5.117V38.26zm15.075-15.703c1.614-1.237 2.835-2.984 3.495-5.003h-9.012c-1.976.003-3.904.668-5.517 1.905-1.614 1.236-2.834 2.984-3.495 5.003h9.012c1.977-.003 3.904-.668 5.517-1.905zM14.675 3.75h-9.55v15.038c.2-.248.416-.496.64-.73a11.84 11.84 0 011.198-1.132c2.213-1.837 4.924-2.831 7.712-2.827h9.551l-.02-.62c-.149-2.631-1.218-5.102-2.988-6.91-1.77-1.806-4.11-2.815-6.543-2.82zm42.03 3.84c-1.782 0-3.408 1.023-4.653 2.2V3.696h-1.189V18.98h.883l.234-2.024c1.258 1.2 2.908 2.2 4.729 2.2 2.315 0 4.298-1.922 4.298-5.801 0-3.88-1.992-5.766-4.302-5.766zm0 10.372c-1.745 0-3.29-1.138-4.653-2.509v-4.257c1.363-1.308 2.908-2.4 4.653-2.4 1.65 0 3.087 1.506 3.087 4.585 0 3.079-1.436 4.581-3.087 4.581z" fill="#8BB539"/><path d="M64.013 3.696h1.189v2.177h-1.19V3.696zm0 4.074h1.189v11.21h-1.19V7.77z" fill="#8BB539"/><path fill-rule="evenodd" clip-rule="evenodd" d="M68.215 13.38c0-3.87 2.688-5.791 5.31-5.791 2.633 0 5.312 1.93 5.312 5.801 0 3.872-2.69 5.792-5.312 5.792-2.622 0-5.31-1.93-5.31-5.801zm1.23-.004c0 3.055 2.077 4.586 4.08 4.586 2.005 0 4.08-1.53 4.08-4.586 0-3.054-2.071-4.585-4.08-4.585s-4.08 1.53-4.08 4.585zm13.561-3.521C84.258 8.65 85.91 7.59 87.725 7.59c2.315 0 4.296 1.918 4.296 5.787 0 3.87-1.983 5.792-4.298 5.792-1.781 0-3.408-.98-4.653-2.14v6.033h-1.189V7.775h.885l.24 2.08zm.066 5.598c1.363 1.37 2.908 2.509 4.653 2.509 1.65 0 3.089-1.503 3.089-4.582 0-3.079-1.438-4.585-3.09-4.585-1.744 0-3.29 1.092-4.652 2.4v4.258z" fill="#8BB539"/><path d="M96.42 9.774c1.307-1.2 2.841-2.185 4.65-2.185 2.275 0 3.817 1.388 3.813 4.187v7.202h-1.189v-7.202c0-1.986-1.06-2.987-2.624-2.987-1.726 0-3.214 1-4.65 2.401v7.79h-1.19V3.696h1.19v6.078zm25.309-2.003l.243 2.09c1.119-1.276 2.375-2.25 4.003-2.244a4.581 4.581 0 011.52.276l-.462 1.18a2.869 2.869 0 00-1.278-.278c-1.478 0-2.647 1.12-3.727 2.413v7.766h-1.189V7.771h.89zm16.229 2.14c1.113-1.262 2.589-2.322 4.212-2.322 2.117 0 3.659 1.388 3.659 4.217v7.202h-1.189v-7.002c0-2.323-1.038-3.2-2.47-3.2-1.468 0-2.935 1.165-3.949 2.454.024.172.024.35.024.532v7.202h-1.19v-7.002c0-2.323-1.015-3.2-2.472-3.2s-2.912 1.151-3.924 2.43v7.77h-1.188V7.789h.881l.231 2c1.084-1.2 2.481-2.2 4-2.2 1.577 0 2.838.77 3.375 2.322z" fill="#8BB539"/><path fill-rule="evenodd" clip-rule="evenodd" d="M108.348 9.277c1.413-.946 2.759-1.688 4.83-1.688 2.27 0 3.946 1.388 3.946 4.195v7.202h-.883l-.247-2.13c-1.212 1.266-2.723 2.318-4.581 2.318-2.051 0-3.661-1.252-3.661-3.475 0-2.29 1.953-3.589 4.169-3.589 1.496 0 2.895.612 4.014 1.4v-1.43c0-2.455-1.235-3.333-2.799-3.333-1.699 0-2.602.464-4.189 1.53l-.599-1zm.619 6.416c0 1.553 1.213 2.319 2.69 2.319 1.578 0 2.984-1.085 4.278-2.409v-.842c-1.161-.842-2.43-1.499-4.014-1.499-1.808 0-2.954.925-2.954 2.431zm40.32-6.416c1.413-.946 2.757-1.688 4.83-1.688h.004c2.27 0 3.945 1.388 3.942 4.195v7.202h-.883l-.248-2.13c-1.21 1.266-2.723 2.318-4.58 2.318-2.051 0-3.661-1.252-3.661-3.475 0-2.29 1.954-3.589 4.169-3.589 1.496 0 2.895.612 4.015 1.4v-1.43c0-2.455-1.233-3.333-2.8-3.333-1.698 0-2.601.464-4.189 1.53l-.599-1zm.619 6.416c0 1.553 1.213 2.319 2.69 2.319 1.583 0 2.991-1.085 4.279-2.409v-.842c-1.163-.842-2.43-1.499-4.015-1.499-1.807 0-2.954.925-2.954 2.431zM51.871 41.577v-5.34c.637.788 1.662 1.518 2.906 1.518 2.305 0 4.236-1.844 4.236-4.647s-1.861-4.667-4.088-4.667c-1.33 0-2.481.8-3.139 1.612a6.068 6.068 0 00-.196-1.362h-1.028c.156.71.227 1.439.213 2.169v10.717h1.096zm0-10.621c.62-.673 1.684-1.479 2.954-1.479 1.63 0 2.978 1.44 2.978 3.631 0 2.19-1.417 3.601-3.138 3.601-1.241 0-2.251-.844-2.8-1.478l.006-4.276z" fill="#8BB539"/><path d="M63.09 24.062h-1.1v13.443h1.1V24.063z" fill="#8BB539"/><path fill-rule="evenodd" clip-rule="evenodd" d="M67.031 30.54a5.687 5.687 0 013.219-1.1c1.292 0 2.551.537 2.551 1.92v1.498c-.69-.826-2.03-1.114-3.139-1.114-2.4 0-3.722 1.306-3.722 2.939 0 1.728 1.206 3.014 3.244 3.014 1.343-.006 2.634-.562 3.615-1.556.019.442.072 1.018.266 1.364h1.117a3.94 3.94 0 01-.282-1.6v-4.853c0-1.959-1.861-2.611-3.617-2.611a6.593 6.593 0 00-3.65 1.132l.398.966zm2.358 6.165c-1.523 0-2.358-.902-2.358-2.016 0-1.115.852-2 2.785-2 1.203 0 2.428.383 2.976 1.171v1.269c-.142.244-1.558 1.576-3.403 1.576z" fill="#8BB539"/><path d="M83.652 29.535a6.3 6.3 0 00-3.545-1.132c-1.488 0-3.279.632-3.279 2.649 0 2.093 1.932 2.226 3.606 2.341l.046.003c1.063.056 2.694.172 2.694 1.555 0 1.23-1.241 1.844-2.748 1.844-1.613 0-2.712-.73-3.474-1.306l-.443.902a6.134 6.134 0 003.936 1.383c2.09 0 3.827-.92 3.827-2.92 0-2.366-2.372-2.512-3.767-2.599l-.033-.002c-1.081-.057-2.545-.136-2.545-1.343 0-1.095 1.17-1.517 2.198-1.517a5.605 5.605 0 013.084 1.036l.443-.894zm4.43 7.971v-6.454c.585-.728 1.477-1.575 2.64-1.575 1.117 0 1.772.769 1.933 1.615v6.414h1.099v-6.454c.585-.728 1.477-1.575 2.623-1.575.253-.011.504.033.74.13.236.098.452.247.633.437.181.191.325.42.421.672.097.253.146.524.143.798v5.992h1.108v-5.992c0-1.787-1.222-3.073-2.871-3.073-1.383 0-2.376.864-2.997 1.787a3 3 0 00-1.088-1.333 2.664 2.664 0 00-1.587-.454c-1.365 0-2.27.826-2.908 1.633a5.244 5.244 0 00-.229-1.383H86.73c.167.683.25 1.387.25 2.093v6.722h1.102z" fill="#8BB539"/><path fill-rule="evenodd" clip-rule="evenodd" d="M103.07 30.54a5.684 5.684 0 013.209-1.095c1.292 0 2.551.538 2.551 1.92v1.5c-.69-.827-2.03-1.115-3.138-1.115-2.412 0-3.723 1.306-3.723 2.939 0 1.728 1.206 3.014 3.244 3.014 1.347-.006 2.642-.564 3.625-1.562.018.442.07 1.018.266 1.364h1.117a3.946 3.946 0 01-.285-1.6v-4.853c0-1.959-1.861-2.611-3.615-2.611a6.606 6.606 0 00-3.652 1.132l.401.966zm2.358 6.165c-1.525 0-2.358-.902-2.358-2.016 0-1.115.851-2 2.782-2 1.206 0 2.428.383 2.978 1.171v1.269c-.142.244-1.56 1.576-3.402 1.576z" fill="#8BB539"/></svg>
